16x16/actions/insert-text-frame.svg

<svg viewBox="0 0 16 16" xmlns="http://www.w3.org/2000/svg"><path d="m2 1v1h-1v1h1v10h-1v1h1v1h1v-1h10v1h1v-1h1v-1h-1v-10h1v-1h-1v-1h-1v1h-10v-1zm1 2h10v10h-10zm1 1v2h3v6h2v-6h3v-2z" fill="#8b9cbe"/></svg>

<svg xmlns="http://www.w3.org/2000/svg" viewBox="0 0 16 16"><path style="fill:currentColor;fill-opacity:1;stroke:none;color:#8b9cbe" d="M2 1v1H1v1h1v10H1v1h1v1h1v-1h10v1h1v-1h1v-1h-1V3h1V2h-1V1h-1v1H3V1H2zm1 2h10v10H3V3zm1 1v2h3v6h2V6h3V4H4z"/></svg>
